X:16
T:Dance of the Vugs
S:Alan Dawson
R:Horo
O:England
M:7/8
C:Alan Dawson
A:Leeds
K:DMix
c2c2 | \
A^c^d e2e2 | e=d=c A2A2 | \
GAB dcBA | GAB c2c2 | \
A^c^d e2e2 | e=d=c A2A2 |\
GAB dcBA | GAB c2c2| \
A^c^d e2e2 | e=d=c A2A2 | \
GAB dcBA | GAB c2c2 | \
A^c^d e2e2 | e=d=c A2A2 | GAB dcBA || \
G2G GFED | EFA G2F2 |\
EEE G2 F2 | DDD G2 F2 | EEE D2D2|\
DEF GFED | EFA G2F2 | \
EEE G2F2 | DDD G2F2 | EEE D2D2 |\
DEF GFED | EFA G2F2 | \
EEE G2F2 | DDD G2F2 | EEE D2D2 |\
DEF GFED | EFA G2F2 | \
EEE G2F2 | DDD G2F2 | EEE D2D2 ||\
"DC"DE=F ||
W:Copyright Alan Dawson
